packages/core/src/svgs/tokens/mono/TRONPAD.svg

<svg width="24" height="24" viewBox="0 0 24 24" fill="none" xmlns="http://www.w3.org/2000/svg">
<path d="M9.63279 18.9445C9.57718 18.9445 9.5217 18.9334 9.46609 18.9111C9.29943 18.8445 9.22165 18.6778 9.22165 18.4945V10.4944L2.20488 5.88321C2.12473 5.83038 2.06332 5.7536 2.0294 5.66382C1.99548 5.57403 1.99078 5.47582 2.01598 5.38319C2.07154 5.18875 2.25488 5.05542 2.45489 5.05542H21.5496C21.6373 5.05515 21.7233 5.08084 21.7964 5.1293C21.8695 5.17774 21.9268 5.24676 21.9607 5.32765C21.9965 5.40697 22.0082 5.49507 21.9943 5.58099C21.9806 5.66691 21.9418 5.74689 21.883 5.81098L18.4274 9.58882C18.3888 9.63834 18.3404 9.6793 18.2853 9.70924C18.2301 9.73919 18.1694 9.75734 18.1069 9.76278C18.0443 9.7681 17.9814 9.76045 17.9219 9.74036C17.8626 9.72026 17.8079 9.68811 17.7615 9.64598C17.7151 9.60372 17.6779 9.55239 17.6522 9.49509C17.6265 9.43793 17.613 9.37596 17.6124 9.31322C17.6119 9.25048 17.6242 9.18825 17.6487 9.13057C17.6733 9.07288 17.7095 9.02077 17.7551 8.97773L20.5163 5.96099H3.96046L9.88272 9.87219C10.0105 9.95554 10.0883 10.0944 10.0883 10.2499V17.3334L12.5551 14.6111V8.57769C12.5551 8.40541 12.6828 8.24441 12.8383 8.17207C12.9939 8.09429 13.1829 8.11659 13.3161 8.22211L16.644 10.8C16.6933 10.8381 16.7343 10.8862 16.7641 10.9409C16.7939 10.9957 16.8119 11.0561 16.8172 11.1183C16.8224 11.1804 16.8146 11.243 16.7944 11.302C16.7742 11.361 16.7418 11.4152 16.6995 11.4611L13.494 14.9611V18.4945C13.494 18.7446 13.2884 18.9445 13.0383 18.9445C12.7884 18.9445 12.5551 18.739 12.5551 18.4945V15.9445L9.96607 18.7945C9.92394 18.8411 9.87248 18.8786 9.81518 18.9044C9.75776 18.9302 9.69566 18.9439 9.63279 18.9445ZM13.494 9.49989V13.6166L15.694 11.211L13.4994 9.49989H13.494Z" fill="white"/>
</svg>

<svg xmlns="http://www.w3.org/2000/svg" width="24" height="24" fill="none" viewBox="0 0 24 24">
    <path fill="#fff" d="M9.633 18.945a.5.5 0 0 1-.167-.034c-.167-.067-.244-.233-.244-.417v-8l-7.017-4.61a.46.46 0 0 1-.189-.5.46.46 0 0 1 .439-.329H21.55a.44.44 0 0 1 .41.273.44.44 0 0 1-.077.483l-3.456 3.778a.456.456 0 1 1-.672-.611l2.761-3.017H3.96l5.923 3.911a.45.45 0 0 1 .205.378v7.083l2.467-2.722V8.578c0-.173.128-.334.283-.406a.45.45 0 0 1 .478.05l3.328 2.578a.45.45 0 0 1 .056.661l-3.206 3.5v3.533c0 .25-.206.45-.456.45s-.483-.205-.483-.45v-2.55l-2.589 2.85a.46.46 0 0 1-.333.15M13.494 9.5v4.117l2.2-2.406L13.499 9.5z"/>
</svg>
